X:044
L:1/16
M:2/4
K:F
cA | FAcA GBdB | Acfg afcA | Bdfb Acfa | ((3gag) ((3fed) ((3cdc) ((3BAG) |
df | g>c (3.c.c.c a>c (3.c.c.c | bcac g>c (3.c.c.c | bcac gfef | ((3gag) ((3fed) ((3cdc) ((3BAG) |

